X:1
T:The Gospel Trumpet’s Sounding
T:The Gospel Trumpet’s Sounding
T:Richard S. Thain, 1877
T:English
T:Public Domain, Courtesy of the Cyber Hymnal™
T:Public Domain, Courtesy of the Cyber Hymnal™
C:Richard S. Thain, 1877
Z:Public Domain,
Z:Courtesy of the Cyber Hymnal™
%%score ( 1 2 ) ( 3 4 )
L:1/8
Q:1/4=115
M:4/4
K:Eb
V:1 treble 
V:2 treble 
V:3 bass 
V:4 bass 
V:1
 E2 | [EG]2 [EG]2 [DA]2 [DA]2 | [EB]4 [EG]2 [B,E]2 | [DF]2 [DF]2 [FA]3 [EG] | [DF]6 [DF]2 | %5
w: 1.~The|Gos- pel trump- et’s|sound- ing, The|year of ju- bi-|lee, And|
w: 2.~For-|sake your wretch- ed|ser- vice, Your|mas- ter’s claims are|o’er; A-|
w: 3.~A|bet- ter Mas- ter’s|call- ing, In|ac- cents true and|kind; He|
w: 4.~He|of- fers you sal-|va- tion, And|points to joys a-|bove; And,|
w: 5.~In|liv- ing faith ac-|cept Him, Give|up all ease be-|side; While|
 [EG]2 [EG]2 [GB]2 [GB]2 | [Ge]4 [Bd]2 [Ac]2 | [GB]2 [GB]2 [Fd]3 [Ec] | [DB]6 ||"^Refrain" [AB]2 | %10
w: grace is all a-|bound- ing, To|set the bond- men|free.||
w: vail your- selves of|free- dom, Be|Sa- tan’s slaves no|more.||
w: asks a lov- ing|ser- vice, And|claims a will- ing|mind.|Re-|
w: long- ing, waits to|make you The|ob- jects of His|love.||
w: grace is loud- ly|call- ing, Look|to the Cru- ci-|fied.||
 [Ge]3 [Ge] [Ge]2 [Ge]2 | [Gd]2 [Gd]4 [Gd]2 | [Ec]3 [Ac] [Ac]2 [Ac]2 | [GB]6 [GB]2 | %14
w: ||||
w: ||||
w: turn, re- turn, ye|cap- tives, Re-|turn un- to your|home, The|
w: ||||
w: ||||
 [Ge]2 [Ge]2 [Bd]2 [Ac]2 | ([GB]2 [Be]2) [EG]2 [Ec]2 | [EB]2 [DA]2 [DF]2 [FA]2 | [EG]6 [AB]2 | %18
w: ||||
w: ||||
w: Gos- pel trump- et’s|sound- * ing, The|ju- bi- lee is|come! The|
w: ||||
w: ||||
 [Ge]2 [Ge]2 [Bd]2 [Ac]2 | ([GB]2 [Be]2) !fermata![EG]2 [Ec]2 | [GB]3 [GB] [Ac]2 [Ad]2 | [Ge]6 |] %22
w: ||||
w: ||||
w: Gos- pel trump- et’s|sound- * ing, The|ju- bi- lee is|come!|
w: ||||
w: ||||
V:2
 E2 | x8 | x8 | x8 | x8 | x8 | x8 | x8 | x6 || x2 | x8 | x8 | x8 | x8 | x8 | x8 | x8 | x8 | x8 | %19
 x8 | x8 | x6 |] %22
V:3
 [E,G,]2 | [E,B,]2 [E,B,]2 [F,B,]2 [F,B,]2 | [G,B,]4 [E,B,]2 [E,G,]2 | %3
 [B,,B,]2 [B,,B,]2 [B,,B,]3 [B,,B,] | [B,,B,]6 [B,,B,]2 | [E,B,]2 [E,B,]2 [E,E]2 [E,E]2 | %6
 [E,B,]4 [E,B,]2 [E,E]2 | [E,E]2 [E,E]2 [F,B,]3 [F,=A,] | B,6 || B,2 | C3 C C2 C2 | %11
 [G,=B,]2 [G,B,]4 [F,A,]2 | [A,C]3 [A,E] [A,E]2 [A,E]2 | [E,E]6 [E,E]2 | %14
 [E,B,]2 [E,B,]2 [E,B,]2 [E,E]2 | (E2 G,2) [E,B,]2 [A,,A,]2 | [B,,G,]2 [B,,B,]2 [B,,B,]2 [B,,B,]2 | %17
 B,6 B,2 | [E,B,]2 [E,B,]2 [E,B,]2 [E,E]2 | (E2 G,2) !fermata![E,B,]2 [A,,E]2 | %20
 [B,,E]3 [B,,E] [B,,E]2 [B,,B,]2 | [E,B,]6 |] %22
V:4
 x2 | x8 | x8 | x8 | x8 | x8 | x8 | x8 | B,6 || B,2 | C3 C C2 C2 | x8 | x8 | x8 | x8 | E,4 x4 | %16
 x8 | (E,2 G,2 B,2) B,2 | x8 | E,4 x4 | x8 | x6 |] %22

